!!!OTL: Gesellenschmauss.
!!!OTL-incipit: FREUNDE TRINKT EINMAL
!!!COM: Volksweise
!!!ARE: Europa, Mitteleuropa, Deutschland
!!!SCT: F0681
!!!TXL: @@DE
!!!YEM: Copyright 1995, estate of Helmut Schaffrath.
**kern	**text
*ICvox	*
*clefG2	*
*M4/4	*
*met(c)	*
*k[b-]	*
*F:	*
=1	=1
!LO:TX:a:t=Mäßig und kräftig.	!
!LO:TX:a:t=P:only the highest voice encoded:problem	!
{(>2a	1._Freun-
8cc/L)	.
8b-J	.
8aL	-de,
8gJ	.
=2	=2
4f	trinkt
4f	einmal!
4f}	.
{4g	wir
=3	=3
(>2a	ſind
8cc/L)	.
8b-J	.
(>8a	noch
8g	.
=4	=4
(>2g	jung
8f)	.
8r}	.
{4f	im
=5	=5
4dd	Al-
4dd	-ter
4dd	iſt
4dd	es
=6	=6
4cc	1._im-
4cc	-mer
4ff}	noch
{(8aL	ʒum
8ccJ)	.
=7	=7
4cc	Sorgen
4b-/	.
4b-/	Ʒeit
4a	ge-
=8	=8
(>2a	-nung.
4g)	.
4r}	.
=9	=9
{4.g	Wären
8g	.
4g	wir
4g	wohl
=10	=10
4a	recht
8aL	ge-
8gJ	.
4f	-ſcheit,
4r}	.
=11	=11
{4.a	wenn
8g	wir
4a	un-
4b-/	-ſre
=12	=12
4cc	1._Le-
8ccL	-bens-
8b-J	.
4a	-ʒeit
4r}	.
=13	=13
{4.cc	ſo
8dd	verſchleichen
4cc	.
4b-	.
=14	=14
2a	lie-
4g	-ßen,
4r}	.
=15	=15
{4a	oh-
4a	-ne
8ccL	Wein
8b-J	.
8aL	und
8gJ	.
=16	=16
(>2g	Küſ-
8f)	-ſen!
8r	.
4r}	.
==	==
!!!AGN: Geselligkeits -, Trink - Lied
!!!ONB: ESAC (Essen Associative Code) Database: FINK
!!!AMT: simple quadruple
!!!AIN: vox
!!!EED: Helmut Schaffrath
!!!EEV: 1.0
!!!RDF**kern: > = above
!!!GTL: Liedertafel- und Gesellschaftslieder
!!Text: Volkslied
!!!source: Musikalischer Hausschatz der Deutschen. Eine Sammlung von über 1000 Liedern und Gesängen mit Singstimmen und Klavierbegleitung. Leipzig, Litterarisches Verlags-Haus.
!!!page: 459
!!!URL-scan: https://www.digitale-sammlungen.de/en/view/bsb11144622?page=409
!!!ENC: Anna Maria Matuszewska
!!!EEV: 2024/08/05
*-	*-
